X: 12
T: RIDEE 6 TEMPS N 7
C:Yves BELOTTEAU
M: 4/4
L: 1/4
Q:1/4=160
K:C 
|Aeed efe3/2 z/2 |dcB3/2 z/2 Aeed|efe3/2 z/2 dcB3/2 z/2 |Aeed efe3/2 z/2
 |
dcB3/2 z/2 Aeed|efe3/2 z/2 dcB3/2 z/2 |Bcdc deA3/2 z/2 |BA^GD Bcdc|
deA3/2 z/2 F^GA3/2 z/2 |Bcdc deA3/2 z/2 |BA^GD Bcdc|deed/2c/2 BcA3/2|
